public/images/stack-items/deployment-icon.svg

<svg height="40" viewBox="0 0 46 40" width="46" xmlns="http://www.w3.org/2000/svg"><path d="m48.4 44h-1.4c0-3.85 3.15-7 7-7v1.4c-3.08 0-5.6 2.52-5.6 5.6zm5.6 16h-1v1h1zm-1 3h1v-1h-1zm1-5h-1v1h1zm17.178125-10.1818182c0-.2909091.071875-.5090909.071875-.7272727 0-3.6363636-2.875-6.5454546-6.46875-6.5454546-.43125 0-.8625.0727273-1.365625.1454546-1.4375-4-5.175-6.6909091-9.415625-6.6909091s-7.978125 2.6909091-9.415625 6.6909091c-.503125-.0727273-.934375-.1454546-1.365625-.1454546-3.59375 0-6.46875 2.909091-6.46875 6.5454546 0 .2181818 0 .5090909.071875.7272727-3.30625.3636364-5.821875 3.2-5.821875 6.5454546 0 3.6363636 2.875 6.5454545 6.46875 6.5454545h10.78125c.575 0 1.15.2181818 1.509375.6545455.359375.4363636.646875.9454545.646875 1.5272727v3.6363636h-3.59375c-.2875 0-.575.1454546-.646875.4363637s-.071875.5818181.14375.8l5.75 5.8181818c.14375.1454545.359375.2181818.503125.2181818s.359375-.0727273.503125-.2181818l5.75-5.8181818c.215625-.2181819.2875-.5090909.14375-.8-.071875-.2909091-.359375-.4363637-.646875-.4363637h-3.59375v-1.4545454h-1.4375v2.1818182c0 .4363636.2875.7272727.71875.7272727h2.5875l-4.025 4.0727273-4.025-4.0727273h2.5875c.43125 0 .71875-.2909091.71875-.7272727v-4.3636364c0-.9454546-.359375-1.8909091-1.078125-2.5454546-.646875-.7272727-1.58125-1.090909-2.515625-1.090909h-10.78125c-2.803125 0-5.03125-2.2545455-5.03125-5.0909091 0-2.8363637 2.228125-5.0909091 5.103125-5.0909091h.14375c.215625 0 .43125-.0727273.575-.2909091.14375-.1454546.215625-.4363637.14375-.6545455-.14375-.3636363-.215625-.8-.215625-1.2363636 0-2.8363636 2.228125-5.0909091 5.03125-5.0909091.503125 0 1.078125.0727273 1.58125.2909091.215625.0727273.359375.0727273.575-.0727273.14375-.0727273.2875-.2181818.359375-.4363636 1.00625-3.7090909 4.45625-6.3272727 8.265625-6.3272727s7.259375 2.6181818 8.265625 6.3272727c.071875.2181818.215625.3636363.359375.4363636s.359375.0727273.575.0727273c.503125-.1454546 1.078125-.2909091 1.58125-.2909091 2.803125 0 5.03125 2.2545455 5.03125 5.0909091 0 .4363636-.071875.8727273-.14375 1.3090909-.071875.2181818 0 .4363636.14375.6545455.14375.1454545.359375.290909.575.290909h.14375c2.803125 0 5.03125 2.2545455 5.03125 5.0909091 0 2.8363637-2.228125 5.0909091-5.03125 5.0909091h-10.78125c-.575 0-1.15-.2181818-1.509375-.6545454-.43125-.4363637-.646875-1.0181818-.646875-1.6v-3.6363637h3.59375c.2875 0 .575-.1454545.646875-.4363636.14375-.2909091.071875-.5818182-.14375-.8l-5.75-5.8181818c-.2875-.2909091-.71875-.2909091-1.00625 0l-5.75 5.8181818c-.215625.2181818-.2875.5090909-.14375.8s.359375.4363636.646875.4363636h3.59375v2.4545455h1.4375v-3.1818182c0-.4363636-.2875-.7272727-.71875-.7272727h-2.5875l4.025-4.0727273 4.025 4.0727273h-2.5875c-.43125 0-.71875.2909091-.71875.7272727v4.3636364c0 .9454545.359375 1.8909091 1.078125 2.5454545.646875.6545455 1.58125 1.0909091 2.515625 1.0909091h10.78125c3.59375 0 6.46875-2.9090909 6.46875-6.5454545 0-3.3454546-2.515625-6.1818182-5.821875-6.5454546z" fill="#fff" transform="translate(-31 -34)"/></svg>

<?xml version="1.0" encoding="UTF-8"?>
<svg width="46px" height="40px" viewBox="0 0 46 40" version="1.1" xmlns="http://www.w3.org/2000/svg" xmlns:xlink="http://www.w3.org/1999/xlink">
    <!-- Generator: Sketch 50.2 (55047) - http://www.bohemiancoding.com/sketch -->
    <title>deployment-icon</title>
    <desc>Created with Sketch.</desc>
    <defs></defs>
    <g id="Landing-Page" stroke="none" stroke-width="1" fill="none" fill-rule="evenodd">
        <g id="landing-v24" transform="translate(-105.000000, -2508.000000)" fill="#FFFFFF" fill-rule="nonzero">
            <g id="04-deploy" transform="translate(74.000000, 2474.000000)">
                <g id="copy">
                    <g id="Group-10">
                        <path d="M48.4,44 L47,44 C47,40.15 50.15,37 54,37 L54,38.4 C50.92,38.4 48.4,40.92 48.4,44 Z M54,60 L53,60 L53,61 L54,61 L54,60 Z M53,63 L54,63 L54,62 L53,62 L53,63 Z M54,58 L53,58 L53,59 L54,59 L54,58 Z M71.178125,47.8181818 C71.178125,47.5272727 71.25,47.3090909 71.25,47.0909091 C71.25,43.4545455 68.375,40.5454545 64.78125,40.5454545 C64.35,40.5454545 63.91875,40.6181818 63.415625,40.6909091 C61.978125,36.6909091 58.240625,34 54,34 C49.759375,34 46.021875,36.6909091 44.584375,40.6909091 C44.08125,40.6181818 43.65,40.5454545 43.21875,40.5454545 C39.625,40.5454545 36.75,43.4545455 36.75,47.0909091 C36.75,47.3090909 36.75,47.6 36.821875,47.8181818 C33.515625,48.1818182 31,51.0181818 31,54.3636364 C31,58 33.875,60.9090909 37.46875,60.9090909 L48.25,60.9090909 C48.825,60.9090909 49.4,61.1272727 49.759375,61.5636364 C50.11875,62 50.40625,62.5090909 50.40625,63.0909091 L50.40625,66.7272727 L46.8125,66.7272727 C46.525,66.7272727 46.2375,66.8727273 46.165625,67.1636364 C46.09375,67.4545455 46.09375,67.7454545 46.309375,67.9636364 L52.059375,73.7818182 C52.203125,73.9272727 52.41875,74 52.5625,74 C52.70625,74 52.921875,73.9272727 53.065625,73.7818182 L58.815625,67.9636364 C59.03125,67.7454545 59.103125,67.4545455 58.959375,67.1636364 C58.8875,66.8727273 58.6,66.7272727 58.3125,66.7272727 L54.71875,66.7272727 L54.71875,65.2727273 L53.28125,65.2727273 L53.28125,67.4545455 C53.28125,67.8909091 53.56875,68.1818182 54,68.1818182 L56.5875,68.1818182 L52.5625,72.2545455 L48.5375,68.1818182 L51.125,68.1818182 C51.55625,68.1818182 51.84375,67.8909091 51.84375,67.4545455 L51.84375,63.0909091 C51.84375,62.1454545 51.484375,61.2 50.765625,60.5454545 C50.11875,59.8181818 49.184375,59.4545455 48.25,59.4545455 L37.46875,59.4545455 C34.665625,59.4545455 32.4375,57.2 32.4375,54.3636364 C32.4375,51.5272727 34.665625,49.2727273 37.540625,49.2727273 C37.540625,49.2727273 37.5885417,49.2727273 37.684375,49.2727273 C37.9,49.2727273 38.115625,49.2 38.259375,48.9818182 C38.403125,48.8363636 38.475,48.5454545 38.403125,48.3272727 C38.259375,47.9636364 38.1875,47.5272727 38.1875,47.0909091 C38.1875,44.2545455 40.415625,42 43.21875,42 C43.721875,42 44.296875,42.0727273 44.8,42.2909091 C45.015625,42.3636364 45.159375,42.3636364 45.375,42.2181818 C45.51875,42.1454545 45.6625,42 45.734375,41.7818182 C46.740625,38.0727273 50.190625,35.4545455 54,35.4545455 C57.809375,35.4545455 61.259375,38.0727273 62.265625,41.7818182 C62.3375,42 62.48125,42.1454545 62.625,42.2181818 C62.76875,42.2909091 62.984375,42.2909091 63.2,42.2909091 C63.703125,42.1454545 64.278125,42 64.78125,42 C67.584375,42 69.8125,44.2545455 69.8125,47.0909091 C69.8125,47.5272727 69.740625,47.9636364 69.66875,48.4 C69.596875,48.6181818 69.66875,48.8363636 69.8125,49.0545455 C69.95625,49.2 70.171875,49.3454545 70.3875,49.3454545 L70.53125,49.3454545 C73.334375,49.3454545 75.5625,51.6 75.5625,54.4363636 C75.5625,57.2727273 73.334375,59.5272727 70.53125,59.5272727 L59.75,59.5272727 C59.175,59.5272727 58.6,59.3090909 58.240625,58.8727273 C57.809375,58.4363636 57.59375,57.8545455 57.59375,57.2727273 L57.59375,53.6363636 L61.1875,53.6363636 C61.475,53.6363636 61.7625,53.4909091 61.834375,53.2 C61.978125,52.9090909 61.90625,52.6181818 61.690625,52.4 L55.940625,46.5818182 C55.653125,46.2909091 55.221875,46.2909091 54.934375,46.5818182 L49.184375,52.4 C48.96875,52.6181818 48.896875,52.9090909 49.040625,53.2 C49.184375,53.4909091 49.4,53.6363636 49.6875,53.6363636 L53.28125,53.6363636 L53.28125,56.0909091 L54.71875,56.0909091 L54.71875,52.9090909 C54.71875,52.4727273 54.43125,52.1818182 54,52.1818182 L51.4125,52.1818182 L55.4375,48.1090909 L59.4625,52.1818182 L56.875,52.1818182 C56.44375,52.1818182 56.15625,52.4727273 56.15625,52.9090909 L56.15625,57.2727273 C56.15625,58.2181818 56.515625,59.1636364 57.234375,59.8181818 C57.88125,60.4727273 58.815625,60.9090909 59.75,60.9090909 L70.53125,60.9090909 C74.125,60.9090909 77,58 77,54.3636364 C77,51.0181818 74.484375,48.1818182 71.178125,47.8181818 Z" id="deployment-icon"></path>
                    </g>
                </g>
            </g>
        </g>
    </g>
</svg>
